webapp/src/assets/icons/cloudproviders/aws/architecture_services/emr.svg

<?xml version="1.0" encoding="UTF-8"?>
<svg width="40px" height="40px" viewBox="0 0 40 40" version="1.1" xmlns="http://www.w3.org/2000/svg" xmlns:xlink="http://www.w3.org/1999/xlink">
    <title>Icon-Architecture/32/Arch_Amazon-EMR_32</title>
    <g id="Icon-Architecture/32/Arch_Amazon-EMR_32" stroke="none" stroke-width="1" fill="none" fill-rule="evenodd">
        <path d="M32.0111912,25.3637158 C32.0111912,24.8263204 31.8031774,24.3218879 31.4267713,23.941316 C31.0384788,23.5497565 30.527359,23.3539768 30.0172297,23.3539768 C29.5071005,23.3539768 28.9959807,23.5497565 28.6066976,23.941316 C27.8291219,24.7254339 27.8291219,26.0009989 28.6066976,26.7851167 C29.3595097,27.5452616 30.6739592,27.5462605 31.4267713,26.7851167 C31.8031774,26.4055438 32.0111912,25.9011112 32.0111912,25.3637158 L32.0111912,25.3637158 Z M27.2338061,24.2949182 C27.3734725,23.9223374 27.5874296,23.5717318 27.8796396,23.2680734 L26.8217405,21.237358 L25.5063004,23.7445374 L27.2338061,24.2949182 Z M24.0749669,24.336871 L17.2085282,22.1483331 C16.8529235,22.7906106 16.3735011,23.3509801 15.8039393,23.8024722 L19.1896126,28.5391435 C20.030583,27.9557997 21.1023497,27.8579099 22.0215729,28.2484705 L24.0749669,24.336871 Z M22.8486756,31.005369 C22.8486756,30.471969 22.6426428,29.9705332 22.2682179,29.5929579 C21.8819064,29.2033962 21.3747488,29.0086153 20.8675912,29.0086153 C20.3604336,29.0086153 19.8532759,29.2033962 19.4669645,29.5929579 C19.0925395,29.9705332 18.8865067,30.471969 18.8865067,31.005369 C18.8865067,31.5387689 19.0925395,32.0402048 19.4669645,32.41778 C20.2385969,33.1959046 21.4965855,33.1959046 22.2682179,32.41778 C22.6426428,32.0402048 22.8486756,31.5387689 22.8486756,31.005369 L22.8486756,31.005369 Z M12.4479822,23.9782744 C14.9055175,23.9782744 16.9054223,21.9625421 16.9054223,19.4833313 C16.9054223,17.0051192 14.9055175,14.9883881 12.4479822,14.9883881 C9.99044698,14.9883881 7.99054223,17.0051192 7.99054223,19.4833313 C7.99054223,21.9625421 9.99044698,23.9782744 12.4479822,23.9782744 L12.4479822,23.9782744 Z M18.8865067,8.99513048 C18.8865067,9.5285304 19.0925395,10.0299663 19.4669645,10.4075415 C20.2385969,11.186665 21.4965855,11.186665 22.2682179,10.4075415 C22.6426428,10.0299663 22.8486756,9.5285304 22.8486756,8.99513048 C22.8486756,8.46173055 22.6426428,7.96029467 22.2682179,7.58271944 C21.8819064,7.19415657 21.3747488,6.99837683 20.8675912,6.99837683 C20.3604336,6.99837683 19.8532759,7.19415657 19.4669645,7.58271944 C19.0925395,7.96029467 18.8865067,8.46173055 18.8865067,8.99513048 L18.8865067,8.99513048 Z M21.9027078,11.7959795 C21.5688951,11.9208391 21.2192337,11.9897615 20.8675912,11.9907604 C20.3227929,11.9907604 19.7819569,11.8349357 19.3045155,11.5362717 L16.3309078,15.6366588 C16.9321669,16.2539643 17.3917785,17.0121114 17.6522911,17.8581596 L24.0264303,15.8733924 L21.9027078,11.7959795 Z M17.8959645,19.4833313 C17.8959645,20.0946435 17.7929481,20.679985 17.6096978,21.229367 L24.546465,23.4388813 L26.2630747,20.1665626 L24.4949568,16.7723811 L17.8553523,18.8400549 C17.8791253,19.0518167 17.8959645,19.2655762 17.8959645,19.4833313 L17.8959645,19.4833313 Z M25.4577639,16.4727182 L26.8257027,19.097765 L28.1183603,16.6345361 C28.0480318,16.5756024 27.9727506,16.5266575 27.9063842,16.4597328 C27.7231339,16.2749407 27.5785148,16.0671744 27.4527159,15.8514172 L25.4577639,16.4727182 Z M28.6066976,15.7535273 C29.3595097,16.5136721 30.6739592,16.514671 31.4267713,15.7535273 C31.8031774,15.3739543 32.0111912,14.8695218 32.0111912,14.3321264 C32.0111912,13.7947309 31.8031774,13.2902984 31.4267713,12.9097266 C31.0384788,12.5181671 30.527359,12.3223873 30.0172297,12.3223873 C29.5071005,12.3223873 28.9959807,12.5181671 28.6066976,12.9097266 C27.8291219,13.6938444 27.8291219,14.9694094 28.6066976,15.7535273 L28.6066976,15.7535273 Z M32.1270847,23.2351105 C33.2909718,24.4087901 33.2909718,26.3186415 32.1270847,27.4913223 C31.5456364,28.0786615 30.7819283,28.3713323 30.0172297,28.3713323 C29.2525311,28.3713323 28.4878325,28.0786615 27.9063842,27.4913223 C27.3041346,26.8840055 27.0208395,26.0799101 27.0416409,25.281808 L25.0348023,24.6425272 L22.8556094,28.7938569 C22.8922595,28.8268198 22.9338623,28.8507929 22.9685312,28.8867524 C23.5291781,29.4521164 23.8392179,30.2052691 23.8392179,31.005369 C23.8392179,31.8054688 23.5291781,32.5586216 22.9685312,33.1239855 C22.389064,33.7083281 21.6293181,34 20.8675912,34 C20.1058642,34 19.3461183,33.7083281 18.7666511,33.1239855 C18.2050137,32.5586216 17.8959645,31.8054688 17.8959645,31.005369 C17.8959645,30.3620926 18.1039784,29.7547759 18.4734506,29.245349 L14.9728744,24.3468598 C14.2170907,24.7474092 13.3592811,24.9771507 12.4479822,24.9771507 C9.44465822,24.9771507 7,22.512923 7,19.4833313 C7,16.4547384 9.44465822,13.9895118 12.4479822,13.9895118 C13.6108788,13.9895118 14.6875982,14.3620926 15.573143,14.9903858 L18.5645805,10.8660257 C18.1396379,10.3356224 17.8959645,9.68735173 17.8959645,8.99513048 C17.8959645,8.19503059 18.2050137,7.44287676 18.7666511,6.87651392 C19.9255855,5.70782869 21.8095968,5.70782869 22.9685312,6.87651392 C23.5291781,7.44287676 23.8392179,8.19503059 23.8392179,8.99513048 C23.8392179,9.79622924 23.5291781,10.5483831 22.9685312,11.113747 C22.9031554,11.1806717 22.8268837,11.2306156 22.7555647,11.2895493 L24.9882468,15.5737296 L27.091168,14.9184667 C26.9059366,13.9655388 27.1763546,12.9396928 27.9063842,12.203521 C29.0682903,11.0308403 30.9631975,11.0288426 32.1270847,12.203521 C33.2909718,13.3772006 33.2909718,15.2870521 32.1270847,16.4597328 C31.5456364,17.047072 30.7819283,17.3397428 30.0172297,17.3397428 C29.6616251,17.3397428 29.3080015,17.2698215 28.9712171,17.143963 L27.3833779,20.1685604 L28.6918842,22.6817331 C29.8082253,22.1223623 31.1989466,22.2981646 32.1270847,23.2351105 L32.1270847,23.2351105 Z M12.9432534,18.9838931 L14.9243378,18.9838931 L14.9243378,19.9827694 L12.9432534,19.9827694 L12.9432534,21.9805219 L11.9527111,21.9805219 L11.9527111,19.9827694 L9.97162668,19.9827694 L9.97162668,18.9838931 L11.9527111,18.9838931 L11.9527111,16.9861406 L12.9432534,16.9861406 L12.9432534,18.9838931 Z" id="Amazon-EMR_Icon_32_Squid" fill="#8C4FFF"></path>
    </g>
</svg>

<svg width="40" height="40" xmlns="http://www.w3.org/2000/svg"><path d="M32.011 25.364a2.01 2.01 0 0 0-.584-1.423 1.984 1.984 0 0 0-2.82 0 2.025 2.025 0 0 0 0 2.844c.753.76 2.067.761 2.82 0 .376-.38.584-.884.584-1.421Zm-4.777-1.07c.14-.372.353-.722.646-1.026l-1.058-2.03-1.316 2.507 1.728.55Zm-3.159.043-6.866-2.189a5.531 5.531 0 0 1-1.405 1.654l3.386 4.737a2.949 2.949 0 0 1 2.832-.29l2.053-3.912Zm-1.226 6.668a1.993 1.993 0 0 0-1.981-1.996c-.508 0-1.015.194-1.401.584-.374.378-.58.879-.58 1.412 0 .534.206 1.035.58 1.413.772.778 2.03.778 2.801 0 .375-.378.58-.88.58-1.413Zm-10.401-7.027c2.458 0 4.457-2.015 4.457-4.495 0-2.478-2-4.495-4.457-4.495-2.458 0-4.457 2.017-4.457 4.495 0 2.48 2 4.495 4.457 4.495Zm6.439-14.983c0 .534.206 1.035.58 1.413a1.97 1.97 0 0 0 2.801 0c.375-.378.58-.88.58-1.413a1.993 1.993 0 0 0-1.98-1.997 1.993 1.993 0 0 0-1.981 1.997Zm3.016 2.801a2.981 2.981 0 0 1-1.035.195 2.947 2.947 0 0 1-1.563-.455l-2.974 4.1a5.511 5.511 0 0 1 1.321 2.222l6.374-1.985-2.123-4.077Zm-4.007 7.687c0 .612-.103 1.197-.286 1.746l6.936 2.21 1.717-3.272-1.768-3.395-6.64 2.068c.024.212.041.426.041.643Zm7.562-3.01 1.368 2.625 1.292-2.463c-.07-.06-.145-.108-.212-.175a2.985 2.985 0 0 1-.453-.609l-1.995.622Zm3.149-.72c.753.76 2.067.762 2.82 0 .376-.379.584-.883.584-1.42a2.01 2.01 0 0 0-.584-1.423 1.984 1.984 0 0 0-2.82 0 2.025 2.025 0 0 0 0 2.844Zm3.52 7.482a3.03 3.03 0 0 1 0 4.256 2.957 2.957 0 0 1-2.11.88 2.96 2.96 0 0 1-2.11-.88 3.01 3.01 0 0 1-.865-2.21l-2.007-.638-2.18 4.15c.037.034.079.058.114.094.56.565.87 1.318.87 2.118 0 .8-.31 1.554-.87 2.119a2.95 2.95 0 0 1-2.101.876 2.947 2.947 0 0 1-2.101-.876 2.987 2.987 0 0 1-.871-2.119c0-.643.208-1.25.577-1.76l-3.5-4.898c-.756.4-1.614.63-2.525.63C9.445 24.977 7 22.513 7 19.483c0-3.028 2.445-5.493 5.448-5.493 1.163 0 2.24.372 3.125 1l2.992-4.124a2.98 2.98 0 0 1-.669-1.87c0-.801.309-1.553.87-2.12a2.956 2.956 0 0 1 4.203 0c.56.567.87 1.319.87 2.12a2.99 2.99 0 0 1-.87 2.118c-.066.067-.142.117-.213.176l2.232 4.284 2.103-.656a3.028 3.028 0 0 1 .815-2.714 2.97 2.97 0 0 1 4.221 0 3.03 3.03 0 0 1 0 4.256 2.957 2.957 0 0 1-2.11.88c-.355 0-.709-.07-1.046-.196l-1.588 3.025 1.309 2.513a2.96 2.96 0 0 1 3.435.553Zm-19.184-4.251h1.981v.999h-1.98v1.998h-.991v-1.998H9.972v-1h1.98v-1.997h.991v1.998Z" fill="#8C4FFF" fill-rule="evenodd"/></svg>
